dist/assets/images/icons/tabs_plan.svg

<svg width="67" height="56" viewBox="0 0 67 56" fill="none" xmlns="http://www.w3.org/2000/svg">
<path d="M30.0801 29.3773C28.7851 30.4652 27.3605 31.6618 26.8425 32.0969C26.1152 32.73 24.6814 33.7578 23.5997 33.4956C23.0144 33.3247 23.8463 33.9733 14.7322 30.2757C14.7322 30.2757 17.143 28.2285 17.7388 28.2803C18.3345 28.3321 22.2974 28.3165 22.2974 28.3165L32.0299 20.2072C35.0085 17.7052 39.2314 17.184 40.2105 18.3495C41.1004 19.4353 39.2149 21.7923 36.544 24.3452L34.2907 32.3124L31.7006 34.4881L30.0801 29.3773Z" stroke="#79655E" stroke-width="2" stroke-miterlimit="10" stroke-linecap="round" stroke-linejoin="round"/>
<path d="M26.1838 24.765L23.8527 23.9621L26.0543 22.1127L29.6007 21.9169" stroke="#79655E" stroke-width="2" stroke-miterlimit="10" stroke-linecap="round" stroke-linejoin="round"/>
<path d="M65.67 22.6514C66.3786 24.4417 65.5073 26.4547 63.7171 27.1634L18.1147 45.2149C16.3244 45.9236 14.3114 45.0523 13.6027 43.262L7.12623 26.9009C6.41756 25.1106 7.28885 23.0976 9.07912 22.3889L54.7312 4.31771C56.5215 3.60903 58.5345 4.48032 59.2432 6.2706L65.7197 22.6317L65.67 22.6514Z" stroke="#79655E" stroke-width="2" stroke-miterlimit="10" stroke-linecap="round" stroke-linejoin="round"/>
<path d="M53.3484 16.0822L54.6901 13.0777L57.7413 20.7858" stroke="#79655E" stroke-width="2" stroke-miterlimit="10" stroke-linecap="round" stroke-linejoin="round"/>
<path d="M44.438 8.68066L44.9695 10.0234" stroke="#79655E" stroke-width="2" stroke-miterlimit="10" stroke-linecap="round" stroke-linejoin="round"/>
<path d="M46.5234 13.9526L47.0353 15.2456" stroke="#79655E" stroke-width="2" stroke-miterlimit="10" stroke-linecap="round" stroke-linejoin="round"/>
<path d="M48.5908 19.1738L49.1223 20.5165" stroke="#79655E" stroke-width="2" stroke-miterlimit="10" stroke-linecap="round" stroke-linejoin="round"/>
<path d="M50.6572 24.395L51.1887 25.7377" stroke="#79655E" stroke-width="2" stroke-miterlimit="10" stroke-linecap="round" stroke-linejoin="round"/>
<path d="M52.7432 29.667L53.2747 31.0097" stroke="#79655E" stroke-width="2" stroke-miterlimit="10" stroke-linecap="round" stroke-linejoin="round"/>
<path d="M22.3575 17.1329L41.7386 2.15567C43.2325 0.989064 45.4165 1.27499 46.5831 2.76895L49.3214 6.34431" stroke="#79655E" stroke-width="2" stroke-miterlimit="10" stroke-linecap="round" stroke-linejoin="round"/>
<path d="M34.5261 38.7194L17.9236 51.5614C16.4296 52.728 14.2457 52.4421 13.0791 50.9481L2.31336 36.9751C1.14676 35.4811 1.43268 33.2972 2.92664 32.1306L7.6375 28.4826" stroke="#79655E" stroke-width="2" stroke-miterlimit="10" stroke-linecap="round" stroke-linejoin="round"/>
</svg>

<svg width="67" height="56" fill="none" xmlns="http://www.w3.org/2000/svg"><path d="M30.08 29.377l-3.237 2.72c-.728.633-2.162 1.66-3.243 1.399-.586-.171.246.477-8.868-3.22 0 0 2.411-2.047 3.007-1.996.595.052 4.558.037 4.558.037l9.733-8.11c2.978-2.502 7.201-3.023 8.18-1.858.89 1.086-.995 3.443-3.666 5.996l-2.253 7.967-2.59 2.176-1.62-5.11z" stroke="#79655E" stroke-width="2" stroke-miterlimit="10" stroke-linecap="round" stroke-linejoin="round"/><path d="M26.184 24.765l-2.331-.803 2.201-1.85 3.547-.195" stroke="#79655E" stroke-width="2" stroke-miterlimit="10" stroke-linecap="round" stroke-linejoin="round"/><path d="M65.67 22.651a3.47 3.47 0 01-1.953 4.512L18.115 45.215a3.47 3.47 0 01-4.512-1.953L7.126 26.901a3.47 3.47 0 011.953-4.512L54.731 4.318a3.47 3.47 0 014.512 1.953l6.477 16.36-.05.02z" stroke="#79655E" stroke-width="2" stroke-miterlimit="10" stroke-linecap="round" stroke-linejoin="round"/><path d="M53.348 16.082l1.342-3.004 3.051 7.708M44.438 8.68l.531 1.343m1.554 3.93l.512 1.293m1.555 3.928l.532 1.343m1.535 3.878l.532 1.343m1.554 3.929l.532 1.343M22.358 17.133l19.38-14.977c1.495-1.167 3.678-.881 4.845.613l2.738 3.575M34.526 38.72L17.924 51.56c-1.494 1.167-3.678.881-4.845-.613L2.313 36.975c-1.166-1.494-.88-3.678.614-4.844l4.71-3.648" stroke="#79655E" stroke-width="2" stroke-miterlimit="10" stroke-linecap="round" stroke-linejoin="round"/></svg>
